X:214
T:Morgan Rattler
R:jig 48
C:Aylmore MS
M:6/8
L:1/8
Q:1/4=120
K:D
|:AGF EFG|FEF D2d|AGF EFG|B2c Bcd|
AGF EFG|FEF D2A|def edc|B2A Bcd:|
|:d2e fdB|c2d ecA|d2e fdB|f2e fga|
d2e fdB|c2d ecA|def ecA|B2A Bcd:|
|:D2d dcd|E2e ede|D2d dcd|B2A Bcd|
D2d dcd|E2e efg|agf edc|B2A Bcd:|]
W:titled Morgan Ratler

